assets/img/braze_icons/check-verified-01.svg

<svg fill="none" height="24" viewBox="0 0 24 24" width="24" xmlns="http://www.w3.org/2000/svg"><path clip-rule="evenodd" d="m15.1341 2.1543c-1.806-1.539068-4.4622-1.539068-6.26825 0-.45359.38655-1.01756.62016-1.61163.66756-2.36533.18876-4.2436 2.06703-4.43236 4.43236-.0474.59407-.28101 1.15804-.66756 1.61163-1.539068 1.80605-1.539068 4.46225 0 6.26825.38655.4536.62016 1.0176.66756 1.6117.18876 2.3653 2.06703 4.2436 4.43236 4.4323.59407.0474 1.15804.281 1.61163.6676 1.80605 1.5391 4.46225 1.5391 6.26825 0 .4536-.3866 1.0176-.6202 1.6117-.6676 2.3653-.1887 4.2436-2.067 4.4323-4.4323.0474-.5941.281-1.1581.6676-1.6117 1.5391-1.806 1.5391-4.4622 0-6.26825-.3866-.45359-.6202-1.01756-.6676-1.61163-.1887-2.36533-2.067-4.2436-4.4323-4.43236-.5941-.0474-1.1581-.28101-1.6117-.66756zm1.073 8.0528c.3905-.39052.3905-1.02368 0-1.41421-.3905-.39052-1.0237-.39052-1.4142 0l-3.7929 3.79291-1.29289-1.2929c-.39053-.3905-1.02369-.3905-1.41422 0-.39052.3905-.39052 1.0237 0 1.4142l2.00001 2c.3905.3905 1.0237.3905 1.4142 0z" fill="#801ed7" fill-rule="evenodd"/></svg>

<svg width="24" height="24" viewBox="0 0 24 24" fill="none" xmlns="http://www.w3.org/2000/svg">
<path fill-rule="evenodd" clip-rule="evenodd" d="M15.1341 2.1543C13.3281 0.615232 10.6719 0.615232 8.86585 2.1543C8.41226 2.54085 7.84829 2.77446 7.25422 2.82186C4.88889 3.01062 3.01062 4.88889 2.82186 7.25422C2.77446 7.84829 2.54085 8.41226 2.1543 8.86585C0.615232 10.6719 0.615232 13.3281 2.1543 15.1341C2.54085 15.5877 2.77446 16.1517 2.82186 16.7458C3.01062 19.1111 4.88889 20.9894 7.25422 21.1781C7.84829 21.2255 8.41226 21.4591 8.86585 21.8457C10.6719 23.3848 13.3281 23.3848 15.1341 21.8457C15.5877 21.4591 16.1517 21.2255 16.7458 21.1781C19.1111 20.9894 20.9894 19.1111 21.1781 16.7458C21.2255 16.1517 21.4591 15.5877 21.8457 15.1341C23.3848 13.3281 23.3848 10.6719 21.8457 8.86585C21.4591 8.41226 21.2255 7.84829 21.1781 7.25422C20.9894 4.88889 19.1111 3.01062 16.7458 2.82186C16.1517 2.77446 15.5877 2.54085 15.1341 2.1543ZM16.2071 10.2071C16.5976 9.81658 16.5976 9.18342 16.2071 8.79289C15.8166 8.40237 15.1834 8.40237 14.7929 8.79289L11 12.5858L9.70711 11.2929C9.31658 10.9024 8.68342 10.9024 8.29289 11.2929C7.90237 11.6834 7.90237 12.3166 8.29289 12.7071L10.2929 14.7071C10.6834 15.0976 11.3166 15.0976 11.7071 14.7071L16.2071 10.2071Z" fill="#801ED7"/>
</svg>
